Catalina-dark/actions/22/call-stop.svg

<svg xmlns="http://www.w3.org/2000/svg" viewBox="0 0 22 22">
  <defs id="defs3051">
    <style type="text/css" id="current-color-scheme">
      .ColorScheme-NegativeText {
        color:#da4453;
      }
      </style>
  </defs>
        <path
           style="fill:currentColor;fill-opacity:1;stroke:none" 
           class="ColorScheme-NegativeText"
           d="M 11 3 A 8 8 0 0 0 3 11 A 8 8 0 0 0 11 19 A 8 8 0 0 0 19 11 A 8 8 0 0 0 11 3 z M 10.941406 8.8671875 C 14.410977 8.858883 15.682251 10.384592 15.736328 10.451172 C 15.852342 10.597951 15.946709 10.75421 16.025391 10.931641 C 16.109609 11.122575 16.166692 11.324911 16.191406 11.523438 L 16.201172 11.523438 L 16.208984 12.046875 C 16.209498 12.428189 15.910814 12.738739 15.542969 12.740234 L 13.693359 12.744141 C 13.32582 12.744294 13.026248 12.435863 13.025391 12.054688 L 13.023438 11.123047 C 12.977762 11.10995 12.928935 11.09596 12.878906 11.082031 C 12.4215 10.95199 11.794781 10.774976 10.947266 10.777344 C 10.0976 10.779355 9.4730827 10.959843 9.015625 11.091797 C 8.967229 11.105845 8.9198399 11.118523 8.875 11.130859 L 8.8769531 11.755859 L 8.8769531 12.064453 C 8.8778283 12.446197 8.5785776 12.756696 8.2109375 12.757812 L 6.3632812 12.761719 C 5.9958981 12.762576 5.6942348 12.454009 5.6933594 12.072266 L 5.6953125 11.548828 L 5.7089844 11.548828 C 5.7326131 11.349927 5.7872407 11.148261 5.8710938 10.955078 C 5.9525484 10.772822 6.0466027 10.615337 6.1582031 10.474609 C 7.0453756 9.3383797 8.4313105 8.8733 10.941406 8.8671875 z "
            />
</svg>

<svg viewBox="0 0 22 22" xmlns="http://www.w3.org/2000/svg">
<defs>
<style id="current-color-scheme" type="text/css">.ColorScheme-NegativeText {
        color:#da4453;
      }</style>
</defs>
<path class="ColorScheme-NegativeText" d="m11 3a8 8 0 0 0-8 8 8 8 0 0 0 8 8 8 8 0 0 0 8-8 8 8 0 0 0-8-8zm-0.058594 5.8672c3.4696-0.0083045 4.7408 1.5174 4.7949 1.584 0.11601 0.14678 0.21038 0.30304 0.28906 0.48047 0.084218 0.19093 0.1413 0.39327 0.16602 0.5918h0.009766l0.007812 0.52344c5.14e-4 0.38131-0.29817 0.69186-0.66602 0.69336l-1.8496 0.003907c-0.36754 1.53e-4 -0.66711-0.30828-0.66797-0.68945l-0.001953-0.93164c-0.045676-0.013097-0.094503-0.027087-0.14453-0.041016-0.45741-0.13004-1.0841-0.30706-1.9316-0.30469-0.84967 0.002011-1.4742 0.1825-1.9316 0.31445-0.048396 0.014048-0.095785 0.026726-0.14062 0.039062l0.0019531 0.625v0.30859c8.752e-4 0.38174-0.29838 0.69224-0.66602 0.69336l-1.8477 0.003907c-0.36738 8.57e-4 -0.66905-0.30771-0.66992-0.68945l0.0019531-0.52344h0.013672c0.023629-0.1989 0.078256-0.40057 0.16211-0.59375 0.081455-0.18226 0.17551-0.33974 0.28711-0.48047 0.88717-1.1362 2.2731-1.6013 4.7832-1.6074z" fill="currentColor"/>
</svg>
